X:1
T:10
T:10
T:160 Kurze Übungen op. 821
T:Carl Czerny
C:Carl Czerny
%%score { 1 | 2 }
L:1/8
Q:1/4=90
M:2/4
K:F
V:1 treble nm="Piano" snm="Pno."
V:2 bass 
V:1
"^Allegro"!f! !1!A/ z/ !2!c/ z/ !4!f/ z/ !5!a/ z/ | %1
 (!3!c'/4b/4) z/ (!3!a/4g/4) z/ (!3!f/4e/4) z/ z | !1!G/ z/ !2!c/ z/ !4!e/ z/ !5!g/ z/ | %3
 (!3!d'/4c'/4) z/ (!3!b/4a/4) z/ (!3!g/4f/4) z/ z |!<(! !1!f/ z/ a/ z/ c'/ z/ f'/ z/!<)! | %5
 (!3!g'/4f'/4) z/ (!3!e'/4d'/4) z/ (!3!c'/4b/4) z/ (!3!a/4g/4) z/ | %6
 (!5!d'/4c'/4) z/ (!2!a/4f/4) z/ (!5!c'/4b/4) z/ (!2!g/4e/4) z/ | %7
 (!3!f/4g/4f/4e/4 !1!f/4a/4c'/4a/4 .f) z |] %8
V:2
 F,/4C/4A,/4C/4 F,/4C/4A,/4C/4 F,/4C/4A,/4C/4 F,/4C/4A,/4C/4 | %1
 !4!G,/4C/4B,/4C/4 G,/4C/4B,/4C/4 G,/4C/4B,/4C/4 G,/4C/4B,/4C/4 | %2
 E,/4C/4B,/4C/4 E,/4C/4B,/4C/4 E,/4C/4B,/4C/4 E,/4C/4B,/4C/4 | %3
 F,/4C/4A,/4C/4 F,/4C/4A,/4C/4 F,/4C/4A,/4C/4 F,/4C/4A,/4C/4 | %4
 A,/4F/4C/4F/4 A,/4F/4C/4F/4 A,/4F/4C/4F/4 A,/4F/4C/4F/4 | %5
 !4!B,/4F/4D/4F/4 B,/4F/4D/4F/4 B,/4G/4D/4G/4 B,/4G/4D/4G/4 | %6
 !5!C/4!1!A/4!3!F/4A/4 C/4A/4F/4A/4 !5!C/4!1!B/4!2!G/4B/4 C/4B/4F/4B/4 | !3!!1![FA][FA] [FA] z |] %8

